src/assets/duotone/Forbidden2.svg

<svg width="24" height="24" viewBox="0 0 24 24"  xmlns="http://www.w3.org/2000/svg">
<path opacity="0.4" d="M14.9 2H9.10001C8.42001 2 7.46 2.4 6.98 2.88L2.88 6.98001C2.4 7.46001 2 8.42001 2 9.10001V14.9C2 15.58 2.4 16.54 2.88 17.02L6.98 21.12C7.46 21.6 8.42001 22 9.10001 22H14.9C15.58 22 16.54 21.6 17.02 21.12L21.12 17.02C21.6 16.54 22 15.58 22 14.9V9.10001C22 8.42001 21.6 7.46001 21.12 6.98001L17.02 2.88C16.54 2.4 15.58 2 14.9 2Z" />
<path d="M13.0599 12.0004L16.0299 9.03043C16.3199 8.74043 16.3199 8.26043 16.0299 7.97043C15.7399 7.68043 15.2599 7.68043 14.9699 7.97043L11.9999 10.9404L9.02994 7.97043C8.73994 7.68043 8.25994 7.68043 7.96994 7.97043C7.67994 8.26043 7.67994 8.74043 7.96994 9.03043L10.9399 12.0004L7.96994 14.9704C7.67994 15.2604 7.67994 15.7404 7.96994 16.0304C8.11994 16.1804 8.30994 16.2504 8.49994 16.2504C8.68994 16.2504 8.87994 16.1804 9.02994 16.0304L11.9999 13.0604L14.9699 16.0304C15.1199 16.1804 15.3099 16.2504 15.4999 16.2504C15.6899 16.2504 15.8799 16.1804 16.0299 16.0304C16.3199 15.7404 16.3199 15.2604 16.0299 14.9704L13.0599 12.0004Z" />
</svg>

<?xml version="1.0" encoding="UTF-8"?>
<svg width="24" height="24" viewBox="0 0 24 24" xmlns="http://www.w3.org/2000/svg">
 <path d="m14.9 2h-5.8c-0.68 0-1.64 0.4-2.12 0.88l-4.1 4.1c-0.48 0.48-0.88 1.44-0.88 2.12v5.8c0 0.68 0.4 1.64 0.88 2.12l4.1 4.1c0.48 0.48 1.44 0.88 2.12 0.88h5.8c0.68 0 1.64-0.4 2.12-0.88l4.1-4.1c0.48-0.48 0.88-1.44 0.88-2.12v-5.8c0-0.68-0.4-1.64-0.88-2.12l-4.1-4.1c-0.48-0.48-1.44-0.88-2.12-0.88z" opacity=".4"/>
 <path d="m13.06 12 2.97-2.97c0.29-0.29 0.29-0.77 0-1.06s-0.77-0.29-1.06 0l-2.97 2.97-2.97-2.97c-0.29-0.29-0.77-0.29-1.06 0s-0.29 0.77 0 1.06l2.97 2.97-2.97 2.97c-0.29 0.29-0.29 0.77 0 1.06 0.15 0.15 0.34 0.22 0.53 0.22s0.38-0.07 0.53-0.22l2.97-2.97 2.97 2.97c0.15 0.15 0.34 0.22 0.53 0.22s0.38-0.07 0.53-0.22c0.29-0.29 0.29-0.77 0-1.06l-2.97-2.97z"/>
</svg>
